X:1
T:He’s Calling Thee Home Today
T:He’s Calling Thee Home Today
T:A. H. Link
T:E. Medd, 1900
T:Public Domain Courtesy of the Cyber Hymnal™
C:A. H. Link
Z:Public Domain
Z:Courtesy of the Cyber Hymnal™
%%score ( 1 2 ) ( 3 4 )
L:1/8
Q:1/4=92
M:6/8
K:A
V:1 treble 
V:2 treble 
V:3 bass 
V:4 bass 
V:1
 ([CE][^B,^D])[CE] [Ec]2 [=D^B] | (AE)[C^E] [DF]3 | (F^E)[=DF] [^DB]2 [DA] | [EG]2 [CA] [EB]3 | %4
w: 1.~Je- * sus calls for|thee, * O soul;|Oh, * in sin why|stay a- way?|
w: 2.~Je- * sus died that|He * might save|Wea- * ry hearts that|sigh for rest;|
w: 3.~Though * through sin thy|death * be sure,|Je- * sus’ blood can|wash a- way|
 ([CE][^B,^D])[CE] [Ec]2 [CA] | ([CA][DB])[Ec] [Fd]3 | ([Ec][DB])[CA] [DG]2 [DF] | %7
w: Shame * and guilt thy|heart * con- trol;|Je- * sus calls thee|
w: Oh, * be- lieve the|word * He gave;|Trust * in Him, and|
w: All * thy guilt, and|make * thee pure;|Oh, * then come, make|
 (EF)[DG] [CA]3 ||"^Refrain" [Ec]3 [CA]3 | [DB]3 [DF]3 | [DG][DG][DG] [DG][DF][DE] | %11
w: home * to- day.||||
w: thou * art blest.|Call- ing,|call- ing,|Je- sus is call- ing thee|
w: no * de- lay.||||
 [CA]2 [DB] [Ec]3 | [Ec]3 [EA]3 | [Fd]3 !fermata![DF]2 [DF] | [CE][CE][CE] [DF]2 [DG] | [CA]6 |] %16
w: |||||
w: home to- day;|Call- ing,|call- ing, He’s|call- ing thee home to-|day.|
w: |||||
V:2
 x6 | C2 x4 | ^D2 x4 | x6 | x6 | x6 | x6 | D2 x4 || x6 | x6 | x6 | x6 | x6 | x6 | x6 | x6 |] %16
V:3
 [A,,A,]2 [A,,A,] [A,,A,]2 [A,,A,] | [A,,A,]2 [A,,A,] [D,A,]3 | [B,,B,]2 [B,,B,] [B,,F,]2 [B,,B,] | %3
 [E,B,]2 [E,A,] [E,G,]3 | [A,,A,]2 [A,,A,] [A,,A,]2 [A,,D,] | [A,,E,]2 [A,,A,] [D,A,]3 | %6
 (A,G,)[E,A,] [E,B,]2 [E,A,] | (G,A,)[E,B,] [A,,A,]3 || [A,,A,]3 [A,,E,]3 | [D,F,]3 [D,B,]3 | %10
 [E,B,][E,B,][E,B,] [E,B,][E,B,][G,B,] | A,2 A, A,3 | [A,,A,]3 [A,,E,]3 | %13
 [D,F,]3 !fermata![D,B,]2 [D,F,] | [E,A,][E,A,][E,A,] [E,G,]2 E, | [A,,E,]6 |] %16
V:4
 x6 | x6 | x6 | x6 | x6 | x6 | E,2 x4 | E,2 x4 || x6 | x6 | x6 | A,2 A, A,3 | x6 | x6 | x5 E, | %15
 x6 |] %16

